X: 36953
T: Showman's Fancy, The
R: hornpipe
M: 4/4
K: Dmajor
|:A^GAB Adfd|Bdgf edcB|A^GAB AF (3DEF|EDEF E2FG|
(3ABA ^GB Adfd|Bdgf edcB|A^GAB AFDE/F/|1 EDEF DdcB:|2 EDEF D2 (3ABd||
|:eA (3def gece|dcde fdAa|(3gbg (3fgf (3efe (3ded|(3cdc (3BcB A2FG|
(3ABA ^GB Adfd|Bdgf edcB|A^GAB AFDE/F/|1 EDEF D2 (3ABd:|2 EDEF DdcB||
|:(3ABA dA ^GABA|(3ABA dA ^GABA|ABcB AGFG|AGFG E2FG|
(3ABA dA ^GABA|(3ABA dA ^GABA|ABcB AGFE|1 D2 (3dAF DdcB:|2 D2 (3dAF D2dc||
|:Bcde fB (3B^AB|gfeg fdBd|(3cBc F2 (3cBc F2|FAde fedc|
Bcde fB (3B^AB|gfeg fdBd|(3cBc F2 FAde|1 fedc Bcdc:|2 fedc B4||
|:AG|FAfe dcBA|GB (3def gfed|ceba gece|(3ded (3cdc (3BcB AG|
FAfe dcBA|GB (3def gfed|ceba gece|(3ded dc d2:|
|:ga|(3b^ab (3=aba (3faf (3def|(3gbg (3fgf (3efe ce|agfe cABc|da (3a^ga bafa|
(3b^ab (3=aba (3faf (3def|(3gbg (3fgf (3efe ce|agfe cABc|da (3afe d2:|

